X:1
T:I'll go home and tell my mother
M:6/8
L:1/8
R:Air
B:Joyce - Old Irish Folk Music and Songs (1909, No. 737)
Z:AK/Fiddler's Companion
K:Dmin
F2D F2D|F2A AGA|F2D F2D|E2G GEC|
F2D F2D|F2G GAB|A2F G2F|E2G GEC||
c2B AGA|F2A AGA|c2B AGF|E2G GEC|
c2B AGA|F2G GAB|A2F G2F|E2G GEC||

